!!!!SEGMENT: pl-wumfc--n42999_namyslowski-karol--maciek.krn
!!!cenid: 18xx:4169
!!!COM: Namysłowski, Karol
!!!COM-rismID: pe30020486
!!!CDT: 1856-1925
!!!CNT: Polish
!!!OTL: Maciek
!!!PDT:
!!!AGN:
!!!YEC: Copyright 2022 Narodowy Instytut Fryderyka Chopina (https://polishscores.org)
!!!YEM: License CC-BY-4.0 (https://creativecommons.org/licenses/by/4.0)
!!!SMS-siglum: PL-Wumfc
!!!SMS-shelfmark: N42999
!!!SMS-shelfwork: W
!!!SMS-variant:
!!!SMS-altvar:
!!!NIFC-rismSourceID: 1001167039
!!!NIFC-rismChildID: 1001167039
!!!NIFC-islandoraID: pl-wumfc:5838
!!!URL-pdf-islandora: https://repozytorium.nifc.pl/islandora/object/pl-wumfc%3A5838/datastream/PDF/view
!!!URL-scan: https://polish.musicsources.pl/pl/lokalizacje/galeria/druki-muzyczne/12437/1 @EN{Scan on Polish Music Sources Website} @PL{Skany w portalu Dziedzictwo Muzyki Polskiej w otwartym dostępie}
!!!IIIF:
!!!ONB-nifc:
!!!AIN: 1 forte
!!!key:
**kern	**kern	**text	**dynam
*part1	*part1	*	*
*staff2	*staff1	*	*
*	*	*v:1	*
*Iforte	*Iforte	*	*
*I"Fortepian.	*I"Fortepian.	*	*
*>[A,B,A,C,C,A]	*>[A,B,A,C,C,A]	*	*
*>A	*>A	*	*
*clefF4	*clefG2	*	*
*k[f#c#]	*k[f#c#]	*	*
*D:	*D:	*	*
*M3/8	*M3/8	*	*
=1	=1	=1	=1
!!LO:TX:a:t=[segno]
.	(>8qa/	.	f
8D\L	8.aa\L)	.	.
8d 8A 8F#\	.	.	.
.	16gg#X\L	.	.
8dJ 8A 8F#\	16aa\	.	.
.	16bb\JJ	.	.
=2	=2	=2	=2
8AA\L	16.ggn\LL	.	.
.	32ff#\JJk	.	.
8c# 8A 8G\	8ee\L	.	.
8c#J 8A 8G\	8bb^\J	.	fz
=3	=3	=3	=3
.	(8qbb/	.	.
8D\L	16.aa\LL)	.	.
.	32ff#\JJk	.	.
8d 8A 8F#\	8dd\L	.	.
8dJ 8B 8G\	(16ddd\L	.	.
.	16bb\JJ)	.	.
=4	=4	=4	=4
8AL 8F# 8D\	16.aa\LL	.	.
.	32ccc#JJk 32aa 32ee\	.	.
8A 8E 8AA\	8eeeL 8aa 8gg\	.	.
8AJ 8F# 8D\	8dddJ 8aa 8ff#\	.	.
=5	=5	=5	=5
8AL 8F# 8D\	16dd\LL	.	mf
.	(8qee/	.	.
.	16dd\JJ)	.	.
8A 8G 8E\	8cc#/L	.	.
8AJ 8G 8AA\	8aJ 8c#/	.	.
!!LO:LB:g=original
=6	=6	=6	=6
8AL 8F# 8D\	16.ddLL 16.f#\	.	.
.	32eeJJk 32a\	.	.
8A 8F# 8D\	8ff#L 8dd\	.	.
8BJ 8BB\	8ggJ 8dd 8g\	.	.
=7	=7	=7	=7
8A 8F# 8D 8AA\	16.ff#LL 16.a\	.	.
.	32dd\JJk	.	.
4A 4E 4C# 4AA\	8eeL 8g\	.	.
.	16eeL 16g\	.	.
.	16cc#\JJ	.	.
=8	=8	=8	=8
8D\L	16.ddLL 16.f#\	.	.
.	32bb\JJk	.	.
8A 8F#\	8aa\L	.	.
8AJ 8E 8AA\	8ggJ 8cc# 8a\	.	.
=9	=9	=9	=9
.	(>8qa/	.	.
8D\L	8.aa\L)	.	.
8d 8A 8F#\	.	.	.
.	16gg#X\L	.	.
8dJ 8A 8F#\	16aa\	.	.
.	16bb\JJ	.	.
=10	=10	=10	=10
8AA\L	16.ggn\LL	.	.
.	32ff#\JJk	.	.
8c# 8A 8G\	8ee\L	.	.
8c#J 8A 8G\	8bb^\J	.	fz
=11	=11	=11	=11
.	(8qbb/	.	.
8D\L	16.aa\LL)	.	.
.	32ff#\JJk	.	.
8d 8A 8F#\	8dd\L	.	.
8dJ 8B 8G\	(16ddd\L	.	.
.	16bb\JJ)	.	.
!!LO:LB:g=original
=12	=12	=12	=12
8AL 8F# 8D\	16.aa\LL	.	.
.	32ccc#\JJk	.	.
8A 8E 8AA\	8eeeL 8aa 8gg\	.	.
8AJ 8F# 8D\	8dddJ 8aa 8ff#\	.	.
=13	=13	=13	=13
16A 16F# 16D\	16dd 16a 16f#/	.	.
16r	16r	.	.
4A 4E 4AA^\	4ee 4cc# 4a 4g^\	.	.
=14	=14	=14	=14
*	*^	*	*
8AL 8F# 8D\	16.ff#/LL	8dd\L	.	.
.	32aa/JJk	.	.	.
8B 8BB\	8gg/	8dd\J	.	.
8GJ 8GG\	8ggg 8bb 8gg^\	8ryy	.	.
=15	=15	=15	=15	=15
8A 8F# 8D 8AA\	16.fff#LL 16.aa\	8ryy	.	.
.	32ddd\JJk	.	.	.
4A 4E 4C# 4AA\	8eee/L	4gg\	.	.
.	16ccc#/L	.	.	.
.	16aa/JJ	.	.	.
*	*v	*v	*	*
=16	=16	=16	=16
8AL 8F# 8D/	8dddL 8ff#\	.	.
8DJ 8DD/	8dddJ 8aa 8ff# 8dd\	.	.
!	!LO:TX:i:b:t=Fine.	!	!
8r	8r	.	.
=17||	=17||;	=17||	=17||
*>B	*>B	*	*
*k[f#c#g#]	*k[f#c#g#]	*	*
8eL 8c# 8A\	16eeLL 16a\	.	mf
.	16eeJJ 16a\	.	.
8e 8c# 8A\	8cc#L 8a\	.	.
8eJ 8c# 8A\	8eeJ 8a\	.	.
=18	=18	=18	=18
8dL 8G# 8E\	16eeLL 16e/	.	.
.	16ddJJ 16e/	.	.
8d 8G# 8E\	8bL 8e/	.	.
8dJ 8G# 8E\	8bJ 8e/	.	.
!!LO:LB:g=original
=19	=19	=19	=19
8dL 8G# 8E\	16ddLL 16e/	.	.
.	16ddJJ 16e/	.	.
8d 8G# 8E\	8bL 8e/	.	.
8dJ 8G# 8E\	8ddJ 8e/	.	.
=20	=20	=20	=20
8c#L 8A\	16ddLL 16e/	.	.
.	16cc#JJ 16e/	.	.
8c# 8A\	8aL 8e/	.	.
8c#J 8A\	8aJ 8e/	.	.
=21	=21	=21	=21
8D\L	16.gg#\LL	.	f
.	32bb\JJk	.	.
8d 8A 8F#\	8aa\L	.	.
.	(8qbb/	.	.
8dJ 8A 8F#\	16aa\L)	.	.
.	16ff#\JJ	.	.
=22	=22	=22	=22
8AA\L	16.ee\LL	.	.
.	32cc#\JJk	.	.
8c# 8A 8E\	8a\L	.	.
8c#J 8A 8E\	8aaJ 8a\	.	.
=23	=23	=23	=23
8EE\L	16.bbLL 16.b\	.	.
.	32gg#\JJk	.	.
8d 8G# 8E\	8ee\L	.	.
8dJ 8G# 8E\	16gg#\L	.	.
.	16bb\JJ	.	.
=24	=24	=24	=24
8AA\L	16.dddLL 16.dd\	.	f
.	32dddJJk 32dd\	.	.
8c# 8A 8E\	8ccc#L 8cc#\	.	.
8c#J 8A 8E\	8eeeJ 8ee\	.	.
=25	=25	=25	=25
8eL 8c# 8A\	16eeLL 16a\	.	mf
.	16eeJJ 16a\	.	.
8e 8c# 8A\	8cc#L 8a\	.	.
8eJ 8c# 8A\	8eeJ 8a\	.	.
!!LO:LB:g=original
=26	=26	=26	=26
8dL 8G# 8E\	16eeLL 16e/	.	.
.	16ddJJ 16e/	.	.
8d 8G# 8E\	8bL 8e/	.	.
8dJ 8G# 8E\	8bJ 8e/	.	.
=27	=27	=27	=27
8dL 8G# 8E\	16ddLL 16e/	.	.
.	16ddJJ 16e/	.	.
8d 8G# 8E\	8bL 8e/	.	.
8dJ 8G# 8E\	8ddJ 8e/	.	.
=28	=28	=28	=28
8c#L 8A\	16ddLL 16e/	.	.
.	16cc#JJ 16e/	.	.
8c# 8A\	8aL 8e/	.	.
8c#J 8A\	8aJ 8e/	.	.
=29	=29	=29	=29
!	!LO:TUP:a:problem:klamra łukowa	!	!
8D\L	24gg#\LL	.	f
.	24aa\	.	.
.	24bb\JJ	.	.
8d 8A 8F#\	8aa\L	.	.
.	(8qbb/	.	.
8dJ 8A 8F#\	16aa\L)	.	.
.	16ff#\JJ	.	.
=30	=30	=30	=30
8AA\L	16.ee\LL	.	.
.	32aa\JJk	.	.
8c# 8A 8E\	8ccc#\L	.	.
8BJ 8F# 8D\	8dddJ 8bb 8ff#\	.	.
=31	=31	=31	=31
8E\L	16.ccc#LL 16.ee\	.	.
.	32aa\JJk	.	.
8c# 8A\	8ee\L	.	.
8EJ 8EE\	8bbJ 8gg# 8ee 8dd\	.	.
=32	=32	=32	=32
!!LO:TX:iB:b:t=D.S. al Fine
8AL 8AA\	8aaL 8ee 8cc#\	.	.
8AJ 8AA\	8aaJ 8ee 8cc# 8a\	.	.
!	!LO:TX:t=P:problem:oznaczenie zmiany tonacji przy powrocie do segno	!	!
8r	8r	.	.
!!LO:PB:g=original
!!LO:TX:a:t=[segno]
=33!|:	=33!|:	=33!|:	=33!|:
*>C	*>C	*	*
*k[b-e-]	*k[b-e-]	*	*
!!LO:TX:B:a:t=Trio.
8GL 8C 8GG/	16.ggLL 16.dd 16.b-\	.	f
.	32ggJJk 32dd 32b-\	.	.
8F#X 8GG/	8aaL 8ee- 8cc\	.	.
8E-J 8GG/	8ff#XJ 8cc 8a\	.	.
=34	=34	=34	=34
8D 8GG/	16.ggLL 16.b-\	.	.
.	32ee-JJk 32cc\	.	.
!	!LO:N:vis=16	!	!
8B-L 8G 8D\	8.ddL 8.b-\	.	.
8B-J 8G 8D\	.	.	.
!	!LO:N:vis=32	!	!
.	16ccJk 16a\	.	.
=35	=35	=35	=35
8D\L	16.b-LL 16.g/	.	.
.	32aJJk 32f#X/	.	.
8A 8F#X\	8ddL 8f#/	.	.
8AJ 8F#\	8f#J 8d 8c/	.	.
=36	=36	=36	=36
8GL 8D 8GG/	8gL 8d 8B-/	.	.
8G 8D 8GG/	8g 8d 8B-/	.	.
8GJ 8D 8GG/	8gJ 8d 8B-/	.	.
=37||	=37||	=37||	=37||
*^	*	*	*
8D\L	4.D/	16d/LL	I-	p
.	.	16en/JJ	-dzie	.
8c 8A\	.	8f#X/L	Ma-	.
8cJ 8A\	.	8d/J	-ciek,	.
*v	*v	*	*	*
=38	=38	=38	=38
8G\L	4g/	i-	.
8d 8B-\	.	.	.
8dJ 8B-\	8b-\	-dzie,	.
=39	=39	=39	=39
*	*^	*	*
8D\L	16dd/LL	8f#X\L	z bi-	.
.	16dd/JJ	.	-ja-	.
8En\	8cc/L	8g\	-kiem	.
8F#X\J	8a/J	8d\J	za	.
*	*v	*v	*	*
!!LO:LB:g=original
=40	=40	=40	=40
8G\L	8dd 8b-\	pa-	.
8d 8B-\	4dd 4b-\	-sem,	.
8dJ 8B-\	.	.	.
=41	=41	=41	=41
*^	*	*	*
8D\L	4.D/	16d/LL	Przy-	.
.	.	16en/JJ	-śpie-	.
8c 8A\	.	8f#X/L	-wu-	.
8cJ 8A\	.	8d/J	-je	.
*v	*v	*	*	*
=42	=42	=42	=42
8G\L	4g/	so-	.
8d 8B-\	.	.	.
8dJ 8B-\	8b-\	-bie	.
=43	=43	=43	=43
*	*^	*	*
8D\L	16dd/LL	8f#X\L	da-	.
.	16dd/JJ	.	-na	.
8En\	8cc#X/L	8g\	da-	.
8F#X\J	8a/J	8d\J	-na	.
*	*v	*v	*	*
=44	=44	=44	=44
8G\L	8dd 8b-\	cza-	.
8d 8B-\	4dd 4b-\	-sem	.
8dJ 8B-\	.	.	.
=45||	=45||	=45||	=45||
*^	*	*	*
8G\L	4.G/	8dd\L	A	f
8d 8B-\	.	8b-\	kto	.
8dJ 8B-\	.	8dd\J	mu	.
=46	=46	=46	=46	=46
8D\L	4.D/	16cc\LL	w dro-	.
.	.	16cc\JJ	-dze	.
8d 8A 8F#X\	.	8a\L	sto-	.
8dJ 8A 8F#\	.	8cc\J	-i	.
*v	*v	*	*	*
!!LO:LB:g=original
=47	=47	=47	=47
8G\L	16b-\LL	Te-	.
.	16b-\JJ	-go	.
8d 8B-\	8g/L	pał-	.
8dJ 8B-\	8b-/J	-ką	.
=48	=48	=48	=48
8D\L	16a/LL	przez	.
.	(8qb-/	.	.
.	16a/JJ)	łeb	.
8d 8A 8F#X\	8f#X/L	zło-	.
8AJ 8F#\	8d/J	-i	.
=49	=49	=49	=49
*^	*	*	*
8D/L	4D\	16d/LL	oj-	.
.	.	16en/	-ta-	.
8AJ 8F#X/	.	16f#X/	-da-	.
.	.	16d/	-na-	.
8r	8Cn\	16e/	-da-	.
.	.	16f#/JJ	-na	.
=50	=50	=50	=50	=50
8BB-/L	4BB-\	4g/	da-	.
8GJ 8D/	.	.	.	.
8r	8GG\	8b-\	-na	.
=51	=51	=51	=51	=51
8C/L	4C\	4a/	da-	.
8A 8G 8E-/	.	.	.	.
8AJ 8F#X/	8D\	8cc\	-na	.
*v	*v	*	*	*
=52	=52	=52	=52
8GG\L	16b-/LL	oj	.
.	16a/JJ	da-	.
8B- 8G 8D\	4g/	-na	.
8B-J 8G 8D\	.	.	.
=53	=53	=53	=53
*^	*	*	*
8G\L	4.G/	8dd\L	A	.
8d 8B-\	.	8b-\	kto	.
8dJ 8B-\	.	8dd\J	mu	.
!!LO:LB:g=original
=54	=54	=54	=54	=54
8D\L	4.D/	16cc\LL	w dro-	.
.	.	16cc\JJ	-dze	.
8d 8A 8F#X\	.	8a\L	sto-	.
8dJ 8A 8F#\	.	8cc\J	-i	.
=55	=55	=55	=55	=55
8G\L	4.G/	16b-\LL	Te-	.
.	.	16b-\JJ	-go	.
8d 8B-\	.	8g/L	pał-	.
8dJ 8B-\	.	8b-/J	-ką	.
*v	*v	*	*	*
=56	=56	=56	=56
8D\L	16a/LL	przez	.
.	(8qb-/	.	.
.	16a/JJ)	łeb	.
8d 8A 8F#X\	8f#X/L	zło-	.
8AJ 8F#\	8d/J	-i	.
=57	=57	=57	=57
*^	*	*	*
8D/L	4D\	16d/LL	oj-	.
.	.	16e#X/	-ta-	.
8AJ 8F#X/	.	16f#X/	-da-	.
.	.	16d/	-na-	.
8r	8Cn\	16e#/	-da-	.
.	.	16f#/JJ	-na	.
=58	=58	=58	=58	=58
8BB-/L	4BB-\	4g/	da-	.
8GJ 8D/	.	.	.	.
8r	8GG\	8b-\	-na	.
=59	=59	=59	=59	=59
8C/L	4C\	4a/	da-	.
8A 8G 8E-/	.	.	.	.
8AJ 8F#X/	8D\	8cc\	-na	.
*v	*v	*	*	*
=60	=60	=60	=60
8GG\L	16b-/LL	oj	.
.	16a/JJ	da-	.
8B- 8G 8D\	4g/	-na.	.
8B-J 8G 8D\	.	.	.
!!LO:LB:g=original
*kcancel	*kcancel	*	*
=61||	=61||	=61||	=61||
*k[f#]	*k[f#]	*	*
16G 16GG/	16ddd 16gg 16dd\	.	f
16r	16r	.	.
4G 4GG^>/	4bb-X 4gg 4dd^\	.	.
=62	=62	=62	=62
8D 8DD/	16.aaLL 16.ff# 16.dd\	.	.
.	32ccc\JJk	.	.
4D 4DD^>/	4aa 4ff# 4dd^\	.	.
=63	=63	=63	=63
!	!LO:TUP:a:problem:klamra łukowa	!	!
8DL 8DD\	24dd\LL	.	.
.	24een\	.	.
.	24ff#X\JJ	.	.
8d 8A 8F#\	8aa\L	.	.
8dJ 8A 8F#\	16ccc\L	.	.
.	16aa\JJ	.	.
=64	=64	=64	=64
8GG/	16.gg\LL	.	.
.	32bbn\JJk	.	.
8dL 8B 8G\	8ddd\L	.	.
.	(8qccc#X/	.	.
8dJ 8B 8G\	8ddd\J)	.	.
=65	=65	=65	=65
16C 16CC/	16eee 16gg 16ee\	.	.
16r	16r	.	.
4c 4G 4E^\	4ccc 4gg 4ee^\	.	.
=66	=66	=66	=66
8GG/	16.bbLL 16.gg 16.dd\	.	.
.	32ddd\JJk	.	.
8BL 8G 8D\	8bbm\L	.	.
8dJ 8B 8G\	16aa\L	.	.
.	16gg\JJ	.	.
=67	=67	=67	=67
8D 8DD/	16.ff#\LL	.	.
.	32ee\JJk	.	.
8cL 8A 8D\	16ff#\LL	.	.
.	16dd\	.	.
8cJ 8A 8D\	16ee\	.	.
.	16ff#\JJ	.	.
=68	=68	=68	=68
!LO:TX:iB:b:t=D.C. al Fine.	!	!	!
8BL 8G\	8gg\L	.	.
8GJ 8GG\	8gggJ 8bb 8gg\	.	.
!	!LO:TX:t=P:problem:oznaczenie zmiany tonacji przy powrocie do początku "Trio"	!	!
8r	8r	.	.
=:|!	=:|!	=:|!	=:|!
*-	*-	*-	*-
!!!system-decoration: {(p1)}
!!!RDF**kern: > = above
!!!RDF**kern: < = below
!!!ENC: Berenika Jozajtis
!!!END: 2022-09-09
!!!ENC: Kamil Watkowski
!!!END: 2022-09-22
